hero/outline/envelope.svg

<svg width="24" height="24" viewBox="0 0 24 24" fill="none" xmlns="http://www.w3.org/2000/svg">
<path d="M21.75 6.75V17.25C21.75 18.4926 20.7426 19.5 19.5 19.5H4.5C3.25736 19.5 2.25 18.4926 2.25 17.25V6.75M21.75 6.75C21.75 5.50736 20.7426 4.5 19.5 4.5H4.5C3.25736 4.5 2.25 5.50736 2.25 6.75M21.75 6.75V6.99271C21.75 7.77405 21.3447 8.49945 20.6792 8.90894L13.1792 13.5243C12.4561 13.9694 11.5439 13.9694 10.8208 13.5243L3.32078 8.90894C2.65535 8.49945 2.25 7.77405 2.25 6.99271V6.75" stroke="#0F172A" stroke-width="1.5" stroke-linecap="round" stroke-linejoin="round"/>
</svg>

<svg viewBox="0 0 24 24" xmlns="http://www.w3.org/2000/svg"><path fill="none" stroke="#000" stroke-linecap="round" stroke-linejoin="round" stroke-width="1.5" d="M21.75 6.75v10.5 0c0 1.24-1.01 2.25-2.25 2.25h-15v0c-1.25 0-2.25-1.01-2.25-2.25V6.75m19.5 0v0c0-1.25-1.01-2.25-2.25-2.25h-15v0c-1.25 0-2.25 1-2.25 2.25m19.5 0v.24 0c0 .78-.41 1.5-1.07 1.91l-7.5 4.615v0c-.73.44-1.64.44-2.36 0l-7.5-4.62h0c-.67-.41-1.08-1.14-1.07-1.92v-.25"/></svg>
